X:1
T:Harvest Home
L:1/8
M:4/4
I:linebreak $
K:D
V:1 treble
V:1
 AF | "D"DAFA DAFA | defe dcBA | "A"eAfA gAfA | (3efe (3dcB (3ABA (3GFE |$
 "D"DAFA DAFA | defe dcBA |  "A"eAfA gece | "D"d2 f2 d2 :| $
|:cd | "A"eA (3cBA fA (3cBA | gAfA eA (3cBA | eAfA gAfA |  (3""efe (3dcB (3ABA (3GFE | $
"D"DAFA DAFA | defe dcBA | "A"eAfA gece | "D"d2 f2 d2 :
